X:3
T:Quem a omagen
C:Alphonse X de Castille (1221-1284)
N:
D:Xremia - Ensemble Mdival
Z:<anamnese@laposte.net> -- http://anamnese.fr.st
M:4/4
L:1/8
Q:1/4=60
K:A
Bf f>e d d/e/f B | Bf f>e dc/B/ d2 |\
Bf f>e d d/e/f B | Bf f>e d/c/B/A/ B2 |
 fg e>f ga/g/ fe | ff/=g/ f>e de f2 |\
 fg e>f ga/g/ fe | ff/=g/ f>e d/c/B/A/ B2 |]
